Newaita-dark/mimetypes/22/text-x-csrc.svg

<?xml version="1.0" encoding="UTF-8"?>
<svg xmlns="http://www.w3.org/2000/svg" xmlns:xlink="http://www.w3.org/1999/xlink" width="22px" height="22px" viewBox="0 0 22 22" version="1.1">
<defs>
<linearGradient id="linear0" gradientUnits="userSpaceOnUse" x1="254" y1="233.5" x2="254" y2="254.666672" gradientTransform="matrix(0.0429729,0,0,0.0429729,0.454795,9.239165)">
<stop offset="0" style="stop-color:rgb(0%,0%,0%);stop-opacity:0.27451;"/>
<stop offset="1" style="stop-color:rgb(0%,0%,0%);stop-opacity:0;"/>
</linearGradient>
<radialGradient id="radial0" gradientUnits="userSpaceOnUse" cx="450.908936" cy="189.579361" fx="450.908936" fy="189.579361" r="21.166656" gradientTransform="matrix(0.000000119742,-0.0537161,-0.0966889,-0.0000000698078,34.020641,43.721791)">
<stop offset="0" style="stop-color:rgb(0%,0%,0%);stop-opacity:0.313726;"/>
<stop offset="0.222222" style="stop-color:rgb(0%,0%,0%);stop-opacity:0.27451;"/>
<stop offset="1" style="stop-color:rgb(0%,0%,0%);stop-opacity:0;"/>
</radialGradient>
<radialGradient id="radial1" gradientUnits="userSpaceOnUse" cx="450.908936" cy="189.579361" fx="450.908936" fy="189.579361" r="21.166656" gradientTransform="matrix(-0.000000119742,0.0537161,0.0966889,0.0000000698078,-12.645221,-5.175142)">
<stop offset="0" style="stop-color:rgb(0%,0%,0%);stop-opacity:0.313726;"/>
<stop offset="0.222222" style="stop-color:rgb(0%,0%,0%);stop-opacity:0.27451;"/>
<stop offset="1" style="stop-color:rgb(0%,0%,0%);stop-opacity:0;"/>
</radialGradient>
<radialGradient id="radial2" gradientUnits="userSpaceOnUse" cx="450.908936" cy="189.579361" fx="450.908936" fy="189.579361" r="21.166656" gradientTransform="matrix(-0.000000119742,-0.0537161,0.0966889,-0.0000000698078,-12.645221,43.721791)">
<stop offset="0" style="stop-color:rgb(0%,0%,0%);stop-opacity:0.313726;"/>
<stop offset="0.222222" style="stop-color:rgb(0%,0%,0%);stop-opacity:0.27451;"/>
<stop offset="1" style="stop-color:rgb(0%,0%,0%);stop-opacity:0;"/>
</radialGradient>
<radialGradient id="radial3" gradientUnits="userSpaceOnUse" cx="450.908936" cy="189.579361" fx="450.908936" fy="189.579361" r="21.166656" gradientTransform="matrix(0.000000119742,0.0537161,-0.0966889,0.0000000698078,34.02064,-5.175142)">
<stop offset="0" style="stop-color:rgb(0%,0%,0%);stop-opacity:0.313726;"/>
<stop offset="0.222222" style="stop-color:rgb(0%,0%,0%);stop-opacity:0.27451;"/>
<stop offset="1" style="stop-color:rgb(0%,0%,0%);stop-opacity:0;"/>
</radialGradient>
<linearGradient id="linear1" gradientUnits="userSpaceOnUse" x1="940" y1="1695.118164" x2="940" y2="175.118118" gradientTransform="matrix(0.0113699,0,0,0.0113699,0,0)">
<stop offset="0" style="stop-color:rgb(87.843138%,87.843138%,87.843138%);stop-opacity:1;"/>
<stop offset="1" style="stop-color:rgb(93.333334%,93.333334%,93.333334%);stop-opacity:1;"/>
</linearGradient>
<linearGradient id="linear2" gradientUnits="userSpaceOnUse" x1="249.189392" y1="236.523788" x2="249.189423" y2="254.666687" gradientTransform="matrix(0.0205522,0,0,0.0752024,10.341666,-11.361824)">
<stop offset="0" style="stop-color:rgb(0%,0%,0%);stop-opacity:0.27451;"/>
<stop offset="1" style="stop-color:rgb(0%,0%,0%);stop-opacity:0;"/>
</linearGradient>
<linearGradient id="linear3" gradientUnits="userSpaceOnUse" x1="338.666656" y1="233.5" x2="338.666656" y2="-168.666672" gradientTransform="matrix(0.0429729,0,0,0.0429729,0,9.239163)">
<stop offset="0" style="stop-color:rgb(61.960787%,61.960787%,61.960787%);stop-opacity:1;"/>
<stop offset="1" style="stop-color:rgb(74.117649%,74.117649%,74.117649%);stop-opacity:1;"/>
</linearGradient>
<linearGradient id="linear4" gradientUnits="userSpaceOnUse" x1="760" y1="1695.118164" x2="760" y2="175.118103" gradientTransform="matrix(0.264583,0,0,0.264583,37.041664,-215)">
<stop offset="0" style="stop-color:rgb(61.960787%,61.960787%,61.960787%);stop-opacity:1;"/>
<stop offset="1" style="stop-color:rgb(74.117649%,74.117649%,74.117649%);stop-opacity:1;"/>
</linearGradient>
</defs>
<g id="surface1">
<path style=" stroke:none;fill-rule:nonzero;fill:url(#linear0);" d="M 5.457031 19.273438 L 15.917969 19.273438 L 15.917969 20.183594 L 5.457031 20.183594 Z M 5.457031 19.273438 "/>
<path style=" stroke:none;fill-rule:nonzero;fill:url(#radial0);" d="M 15.917969 19.273438 L 17.738281 19.273438 L 17.738281 18.363281 L 15.917969 18.363281 Z M 15.917969 19.273438 "/>
<path style=" stroke:none;fill-rule:nonzero;fill:url(#radial1);" d="M 5.457031 19.273438 L 3.636719 19.273438 L 3.636719 20.183594 L 5.457031 20.183594 Z M 5.457031 19.273438 "/>
<path style=" stroke:none;fill-rule:nonzero;fill:url(#radial2);" d="M 5.457031 19.273438 L 3.636719 19.273438 L 3.636719 18.363281 L 5.457031 18.363281 Z M 5.457031 19.273438 "/>
<path style=" stroke:none;fill-rule:nonzero;fill:url(#radial3);" d="M 15.917969 19.273438 L 17.738281 19.273438 L 17.738281 20.183594 L 15.917969 20.183594 Z M 15.917969 19.273438 "/>
<path style=" stroke:none;fill-rule:nonzero;fill:url(#linear1);" d="M 12.746094 1.992188 L 4.546875 1.992188 C 4.042969 1.992188 3.636719 2.398438 3.636719 2.902344 L 3.636719 18.363281 C 3.636719 18.867188 4.042969 19.273438 4.546875 19.273438 L 16.828125 19.273438 C 17.332031 19.273438 17.738281 18.867188 17.738281 18.363281 L 17.738281 6.980469 Z M 12.746094 1.992188 "/>
<path style=" stroke:none;fill-rule:nonzero;fill:rgb(0%,0%,0%);fill-opacity:0.235294;" d="M 3.636719 18.011719 L 3.636719 18.363281 C 3.636719 18.867188 4.042969 19.273438 4.546875 19.273438 L 16.828125 19.273438 C 17.332031 19.273438 17.738281 18.867188 17.738281 18.363281 L 17.738281 18.011719 C 17.738281 18.515625 17.332031 18.921875 16.828125 18.921875 L 4.546875 18.921875 C 4.042969 18.921875 3.636719 18.515625 3.636719 18.011719 Z M 3.636719 18.011719 "/>
<path style=" stroke:none;fill-rule:nonzero;fill:rgb(100%,100%,100%);fill-opacity:0.784314;" d="M 4.546875 1.992188 C 4.042969 1.992188 3.636719 2.398438 3.636719 2.902344 L 3.636719 3.242188 C 3.636719 2.738281 4.042969 2.332031 4.546875 2.332031 L 12.746094 2.332031 L 17.738281 7.320312 L 17.738281 6.980469 L 12.746094 1.992188 Z M 4.546875 1.992188 "/>
<path style=" stroke:none;fill-rule:nonzero;fill:url(#linear2);" d="M 12.734375 6.199219 L 17.054688 6.199219 L 17.738281 6.878906 L 17.738281 7.789062 L 12.734375 7.789062 Z M 12.734375 6.199219 "/>
<path style=" stroke:none;fill-rule:nonzero;fill:url(#linear3);" d="M 17.738281 6.980469 L 12.746094 1.992188 L 12.746094 6.070312 C 12.746094 6.574219 13.152344 6.980469 13.65625 6.980469 Z M 17.738281 6.980469 "/>
<path style=" stroke:none;fill-rule:nonzero;fill:rgb(0%,0%,0%);fill-opacity:0.235294;" d="M 12.746094 5.855469 L 12.746094 6.070312 C 12.746094 6.574219 13.152344 6.980469 13.65625 6.980469 L 17.738281 6.980469 L 17.523438 6.765625 L 13.65625 6.765625 C 13.152344 6.765625 12.746094 6.359375 12.746094 5.855469 Z M 12.746094 5.855469 "/>
<path style=" stroke:none;fill-rule:nonzero;fill:rgb(100%,100%,100%);fill-opacity:0.392157;" d="M 12.746094 1.992188 L 12.746094 2.332031 L 17.394531 6.980469 L 17.738281 6.980469 Z M 12.746094 1.992188 "/>
<path style=" stroke:none;fill-rule:nonzero;fill:rgb(12.941177%,12.941177%,12.941177%);fill-opacity:1;" d="M 12.746094 1.925781 C 12.710938 1.925781 12.683594 1.957031 12.683594 1.992188 L 12.683594 6.070312 C 12.683594 6.609375 13.117188 7.042969 13.65625 7.042969 L 17.738281 7.042969 C 17.761719 7.042969 17.785156 7.027344 17.796875 7.003906 C 17.804688 6.980469 17.800781 6.953125 17.78125 6.933594 L 12.792969 1.945312 C 12.78125 1.933594 12.765625 1.925781 12.746094 1.925781 Z M 12.8125 2.148438 L 17.582031 6.914062 L 13.65625 6.914062 C 13.1875 6.914062 12.8125 6.539062 12.8125 6.070312 Z M 12.8125 2.148438 "/>
<path style=" stroke:none;fill-rule:nonzero;fill:rgb(12.941177%,12.941177%,12.941177%);fill-opacity:1;" d="M 4.546875 1.925781 C 4.007812 1.925781 3.574219 2.363281 3.574219 2.902344 L 3.574219 18.363281 C 3.574219 18.902344 4.007812 19.335938 4.546875 19.335938 L 16.828125 19.335938 C 17.367188 19.335938 17.800781 18.902344 17.800781 18.363281 L 17.800781 6.980469 C 17.800781 6.964844 17.792969 6.945312 17.78125 6.933594 L 12.792969 1.945312 C 12.78125 1.933594 12.765625 1.925781 12.746094 1.925781 Z M 4.546875 2.054688 L 12.722656 2.054688 L 17.671875 7.007812 L 17.671875 18.363281 C 17.671875 18.832031 17.296875 19.207031 16.828125 19.207031 L 4.546875 19.207031 C 4.078125 19.207031 3.703125 18.832031 3.703125 18.363281 L 3.703125 2.902344 C 3.703125 2.429688 4.078125 2.054688 4.546875 2.054688 Z M 4.546875 2.054688 "/>
<path style="fill-rule:nonzero;fill:url(#linear4);stroke-width:3;stroke-linecap:round;stroke-linejoin:round;stroke:rgb(12.941177%,12.941177%,12.941177%);stroke-opacity:1;stroke-miterlimit:4;" d="M 206.343932 -31.10847 C 200.526305 -31.10847 195.799484 -26.381649 195.799484 -20.473122 L 195.799484 106.514751 C 195.799484 112.332378 200.526305 117.059199 206.343932 117.059199 L 291.063114 117.059199 C 296.88074 117.059199 301.607562 112.332378 301.607562 106.514751 L 301.607562 74.790508 C 301.607562 71.790795 299.244151 69.427384 296.335338 69.427384 L 285.79089 69.427384 C 282.791177 69.427384 280.427766 71.790795 280.427766 74.790508 L 280.427766 90.60718 C 280.427766 93.515993 278.064355 95.879403 275.155542 95.879403 L 222.251503 95.879403 C 219.34269 95.879403 216.97928 93.515993 216.97928 90.60718 L 216.97928 -4.65645 C 216.97928 -7.565264 219.34269 -9.928674 222.251503 -9.928674 L 275.155542 -9.928674 C 278.064355 -9.928674 280.427766 -7.565264 280.427766 -4.65645 L 280.427766 11.251121 C 280.427766 14.159935 282.791177 16.523345 285.79089 16.523345 L 296.335338 16.523345 C 299.244151 16.523345 301.607562 14.159935 301.607562 11.251121 L 301.607562 -20.473122 C 301.607562 -26.381649 296.88074 -31.10847 291.063114 -31.10847 Z M 206.343932 -31.10847 " transform="matrix(0.0429729,0,0,0.0429729,0,9.239163)"/>
</g>
</svg>

<svg xmlns="http://www.w3.org/2000/svg" width="22pt" height="22pt" viewBox="0 0 22 22"><defs><linearGradient id="a" gradientUnits="userSpaceOnUse" x1="254" y1="233.5" x2="254" y2="254.667" gradientTransform="matrix(.04297 0 0 .04297 .455 9.24)"><stop offset="0" stop-opacity=".275"/><stop offset="1" stop-opacity="0"/></linearGradient><radialGradient id="b" gradientUnits="userSpaceOnUse" cx="450.909" cy="189.579" fx="450.909" fy="189.579" r="21.167" gradientTransform="matrix(0 -.05372 -.09669 0 34.02 43.722)"><stop offset="0" stop-opacity=".314"/><stop offset=".222" stop-opacity=".275"/><stop offset="1" stop-opacity="0"/></radialGradient><radialGradient id="c" gradientUnits="userSpaceOnUse" cx="450.909" cy="189.579" fx="450.909" fy="189.579" r="21.167" gradientTransform="matrix(0 .05372 .09669 0 -12.645 -5.175)"><stop offset="0" stop-opacity=".314"/><stop offset=".222" stop-opacity=".275"/><stop offset="1" stop-opacity="0"/></radialGradient><radialGradient id="d" gradientUnits="userSpaceOnUse" cx="450.909" cy="189.579" fx="450.909" fy="189.579" r="21.167" gradientTransform="matrix(0 -.05372 .09669 0 -12.645 43.722)"><stop offset="0" stop-opacity=".314"/><stop offset=".222" stop-opacity=".275"/><stop offset="1" stop-opacity="0"/></radialGradient><radialGradient id="e" gradientUnits="userSpaceOnUse" cx="450.909" cy="189.579" fx="450.909" fy="189.579" r="21.167" gradientTransform="matrix(0 .05372 -.09669 0 34.02 -5.175)"><stop offset="0" stop-opacity=".314"/><stop offset=".222" stop-opacity=".275"/><stop offset="1" stop-opacity="0"/></radialGradient><linearGradient id="f" gradientUnits="userSpaceOnUse" x1="940" y1="1695.118" x2="940" y2="175.118" gradientTransform="rotate(.24) scale(.01137)"><stop offset="0" stop-color="#e0e0e0"/><stop offset="1" stop-color="#eee"/></linearGradient><linearGradient id="g" gradientUnits="userSpaceOnUse" x1="249.189" y1="236.524" x2="249.189" y2="254.667" gradientTransform="matrix(.02055 0 0 .0752 10.342 -11.362)"><stop offset="0" stop-opacity=".275"/><stop offset="1" stop-opacity="0"/></linearGradient><linearGradient id="h" gradientUnits="userSpaceOnUse" x1="338.667" y1="233.5" x2="338.667" y2="-168.667" gradientTransform="matrix(.04297 0 0 .04297 0 9.24)"><stop offset="0" stop-color="#9e9e9e"/><stop offset="1" stop-color="#bdbdbd"/></linearGradient><linearGradient id="i" gradientUnits="userSpaceOnUse" x1="760" y1="1695.118" x2="760" y2="175.118" gradientTransform="matrix(.26458 0 0 .26458 37.042 -215)"><stop offset="0" stop-color="#9e9e9e"/><stop offset="1" stop-color="#bdbdbd"/></linearGradient></defs><path d="M5.457 19.273h10.461v.91H5.457zm0 0" fill="url(#a)"/><path d="M15.918 19.273h1.82v-.91h-1.82zm0 0" fill="url(#b)"/><path d="M5.457 19.273h-1.82v.91h1.82zm0 0" fill="url(#c)"/><path d="M5.457 19.273h-1.82v-.91h1.82zm0 0" fill="url(#d)"/><path d="M15.918 19.273h1.82v.91h-1.82zm0 0" fill="url(#e)"/><path d="M12.746 1.992h-8.2a.909.909 0 0 0-.91.91v15.461c0 .504.407.91.91.91h12.282c.504 0 .91-.406.91-.91V6.98zm0 0" fill="url(#f)"/><path d="M3.637 18.012v.351c0 .504.406.91.91.91h12.281c.504 0 .91-.406.91-.91v-.351c0 .504-.406.91-.91.91H4.547a.909.909 0 0 1-.91-.91zm0 0" fill-opacity=".235"/><path d="M4.547 1.992a.909.909 0 0 0-.91.91v.34c0-.504.406-.91.91-.91h8.2l4.991 4.988v-.34l-4.992-4.988zm0 0" fill="#fff" fill-opacity=".784"/><path d="M12.734 6.2h4.32l.684.679v.91h-5.004zm0 0" fill="url(#g)"/><path d="M17.738 6.98l-4.992-4.988V6.07c0 .504.406.91.91.91zm0 0" fill="url(#h)"/><path d="M12.746 5.855v.215c0 .504.406.91.91.91h4.082l-.215-.214h-3.867a.909.909 0 0 1-.91-.91zm0 0" fill-opacity=".235"/><path d="M12.746 1.992v.34l4.649 4.648h.343zm0 0" fill="#fff" fill-opacity=".392"/><path d="M12.746 1.926c-.035 0-.062.031-.062.066V6.07c0 .54.433.973.972.973h4.082a.068.068 0 0 0 .059-.04.068.068 0 0 0-.016-.07l-4.988-4.988a.065.065 0 0 0-.047-.02zm.066.222l4.77 4.766h-3.926a.84.84 0 0 1-.844-.844zm0 0" fill="#212121"/><path d="M4.547 1.926a.974.974 0 0 0-.973.976v15.461c0 .54.434.973.973.973h12.281a.97.97 0 0 0 .973-.973V6.98a.072.072 0 0 0-.02-.046l-4.988-4.989a.065.065 0 0 0-.047-.02zm0 .129h8.176l4.949 4.953v11.355a.84.84 0 0 1-.844.844H4.547a.84.84 0 0 1-.844-.844V2.903c0-.473.375-.848.844-.848zm0 0" fill="#212121"/><path d="M206.344-31.108c-5.818 0-10.545 4.726-10.545 10.635v126.988c0 5.817 4.727 10.544 10.545 10.544h84.72c5.817 0 10.544-4.727 10.544-10.544V74.79c0-3-2.364-5.364-5.273-5.364h-10.544c-3 0-5.363 2.364-5.363 5.364v15.816a5.276 5.276 0 0 1-5.272 5.272h-52.904a5.276 5.276 0 0 1-5.273-5.272V-4.656a5.276 5.276 0 0 1 5.273-5.273h52.904a5.276 5.276 0 0 1 5.272 5.273V11.25c0 2.909 2.363 5.272 5.363 5.272h10.544a5.276 5.276 0 0 0 5.273-5.272v-31.724c0-5.909-4.727-10.635-10.545-10.635zm0 0" transform="matrix(.04297 0 0 .04297 0 9.24)" fill="url(#i)" stroke-width="3" stroke-linecap="round" stroke-linejoin="round" stroke="#212121"/></svg>
